src/lib/packages/icons/src/assets/filled/fingerprint.svg

<svg width="24" height="24" viewBox="0 0 24 24" fill="none" xmlns="http://www.w3.org/2000/svg">
<path d="M20 10V16C20 17.238 19.8781 19.06 18.8191 20.573C18.6251 20.851 18.314 21 17.999 21C17.801 21 17.602 20.9411 17.427 20.8191C16.975 20.5031 16.8649 19.879 17.1809 19.426C17.7469 18.615 18 17.559 18 15.999V9.99902C18 8.74002 17.6189 7.54497 16.8979 6.54297C16.5749 6.09497 16.677 5.46997 17.126 5.14697C17.575 4.82397 18.199 4.927 18.522 5.375C19.489 6.72 20 8.319 20 10ZM12 4C12.21 4 12.4199 4.00696 12.6299 4.03296C13.1849 4.09896 13.6769 3.70891 13.7429 3.15991C13.8089 2.61091 13.4191 2.11412 12.8701 2.04712C12.5801 2.01212 12.29 2 12 2C7.589 2 4 5.589 4 10V16C4 16.552 4.447 17 5 17C5.553 17 6 16.552 6 16V10C6 6.691 8.691 4 12 4ZM12.0959 6C11.5099 5.985 11.084 6.4231 11.071 6.9751C11.058 7.5271 11.4939 7.98602 12.0459 7.99902C12.5549 8.01202 13.0541 8.22594 13.4141 8.58594C13.7931 8.96394 14.001 9.46602 14.001 9.99902V15.3889C14.001 17.4839 13.1891 19.002 11.4451 20.167C10.9861 20.474 10.8619 21.095 11.1699 21.554C11.3619 21.843 11.679 21.998 12.002 21.998C12.193 21.998 12.3859 21.9431 12.5569 21.8301C14.8419 20.3021 16.001 18.1349 16.001 15.3889V10C16.001 8.933 15.5849 7.92912 14.8279 7.17212C14.0959 6.44212 13.1259 6.026 12.0959 6ZM9.44507 8.18091C8.92307 8.00491 8.35393 8.28996 8.17993 8.81396C8.05993 9.17496 7.99902 9.574 7.99902 10V13.9299C7.99902 14.8049 7.70603 15.6691 7.17603 16.3611C6.83903 16.7991 6.92208 17.4269 7.36108 17.7629C7.54308 17.9019 7.75702 17.97 7.96802 17.97C8.26902 17.97 8.56596 17.8351 8.76196 17.5791C9.55996 16.5391 9.99902 15.2439 9.99902 13.9299V10C9.99902 9.792 10.0259 9.60105 10.0779 9.44604C10.2529 8.92104 9.97007 8.35491 9.44507 8.18091ZM12 16C12.553 16 13 15.552 13 15V11C13 10.448 12.553 10 12 10C11.447 10 11 10.448 11 11V15C11 15.552 11.447 16 12 16Z" fill="currentColor"/>
</svg>

<svg xmlns="http://www.w3.org/2000/svg" width="24" height="24" fill="none"><path fill="currentColor" d="M20 10v6c0 1.238-.122 3.06-1.18 4.573a.999.999 0 0 1-1.393.246 1.001 1.001 0 0 1-.246-1.393c.566-.811.819-1.867.819-3.427v-6a5.877 5.877 0 0 0-1.102-3.456 1 1 0 1 1 1.624-1.168A7.87 7.87 0 0 1 20 10Zm-8-6c.21 0 .42.007.63.033a1 1 0 1 0 .24-1.986A7.249 7.249 0 0 0 12 2c-4.411 0-8 3.589-8 8v6a1 1 0 1 0 2 0v-6c0-3.309 2.691-6 6-6Zm.096 2a.979.979 0 0 0-1.025.975A1 1 0 0 0 12.046 8a2.027 2.027 0 0 1 1.368.587c.38.378.587.88.587 1.413v5.39c0 2.095-.812 3.613-2.556 4.778a.999.999 0 1 0 1.112 1.663C14.842 20.302 16 18.135 16 15.39V10c0-1.067-.416-2.07-1.173-2.828A3.997 3.997 0 0 0 12.096 6Zm-2.65 2.18a1 1 0 0 0-1.266.634c-.12.361-.181.76-.181 1.186v3.93c0 .875-.293 1.74-.823 2.431a.998.998 0 0 0 .792 1.609.997.997 0 0 0 .794-.39 6.024 6.024 0 0 0 1.237-3.65V10c0-.208.027-.399.079-.554a.999.999 0 0 0-.633-1.265ZM12 16a1 1 0 0 0 1-1v-4a1 1 0 1 0-2 0v4a1 1 0 0 0 1 1Z"/></svg>
